picto/arrow-turning-right.svg

<svg class="color-immutable" width="60" height="24" viewBox="0 0 60 24" fill="none" xmlns="http://www.w3.org/2000/svg"><path d="M0 22.5V1.5C0 0.675 0.675 0 1.5 0H58.5C59.325 0 60 0.675 60 1.5V22.5C60 23.325 59.325 24 58.5 24H1.5C0.675 24 0 23.325 0 22.5Z" fill="#2D327D"/><path d="M19.828 0.539993C32.492 0.539993 43.923 5.90699 51.977 14.48L51.473 2.87999L55.5 6.90699V21H41.407L37.38 16.974L48.957 17.477L48.978 17.478C41.693 9.67199 31.323 4.78099 19.828 4.78099C14.777 4.78099 9.943 5.72699 5.492 7.44799L3.968 3.48999C8.892 1.58699 14.24 0.539993 19.828 0.539993Z" fill="white"/></svg>

<svg class="color-immutable" width="60" height="24" viewBox="0 0 60 24" fill="none" xmlns="http://www.w3.org/2000/svg"><g clip-path="url(#a)"><path d="M0 22.5v-21C0 .675.675 0 1.5 0h57c.825 0 1.5.675 1.5 1.5v21c0 .825-.675 1.5-1.5 1.5h-57C.675 24 0 23.325 0 22.5Z" fill="#2D327D"/><path d="M19.828.54c12.664 0 24.095 5.367 32.149 13.94l-.504-11.6L55.5 6.907V21H41.407l-4.027-4.026 11.577.503.021.001C41.693 9.672 31.323 4.781 19.828 4.781A39.67 39.67 0 0 0 5.492 7.448L3.968 3.49A43.906 43.906 0 0 1 19.828.54Z" fill="#fff"/></g><defs><clipPath id="a"><path fill="#fff" d="M0 0h60v24H0z"/></clipPath></defs></svg>
